papirus/22x22/apps/nylas.svg

<svg height="22" width="22" xmlns="http://www.w3.org/2000/svg" xmlns:xlink="http://www.w3.org/1999/xlink"><clipPath id="a"><circle cx="286" cy="26" r="10"/></clipPath><g transform="translate(-1 -1)"><circle cx="12" cy="12" fill="#37a0f2" r="10"/><g fill-rule="evenodd" opacity=".2" transform="translate(0 2.5)"><path d="m5 12l6 2v2l-6-2z"/><path d="m5 9l6 2v2l-6-2z"/><path d="m5 6l6 2v2l-6-2z"/><path d="m12 11l6 2v2l-6-2z"/><path d="m12 8l6 2v2l-6-2z"/><path d="m12 5l6 2v2l-6-2z"/></g><circle clip-path="url(#a)" cx="286" cy="26" opacity="0" r="10" stroke-width=".45455" transform="translate(-274 -14)"/><circle clip-path="url(#a)" cx="286" cy="26" opacity="0" r="10" stroke-width=".90908998" transform="translate(-274 -14)"/><path d="m12 2c-5.5395 0-9.999 4.46-9.999 10 0 .08386-.002.166645 0 .25.1321-5.423 4.5435-9.75 9.999-9.75 5.4555 0 9.867 4.3268 9.999 9.75.002-.08335 0-.16614 0-.25 0-5.54-4.4595-10-9.999-10z" fill="#fff" opacity=".2"/><path d="m21.9895 11.709a10 10 0 0 1 -9.9895 9.791 10 10 0 0 1 -9.989-9.709 10 10 0 0 0 -.011.209 10 10 0 0 0  10 10 10 10 0 0 0  10-10 10 10 0 0 0 -.0105-.291z" opacity=".3"/><g fill="#fff" fill-rule="evenodd" transform="translate(0 2)"><path d="m5 12l6 2v2l-6-2z"/><path d="m5 9l6 2v2l-6-2z"/><path d="m5 6l6 2v2l-6-2z"/><path d="m12 11l6 2v2l-6-2z"/><path d="m12 8l6 2v2l-6-2z"/><path d="m12 5l6 2v2l-6-2z"/></g></g></svg>

<?xml version="1.0" encoding="UTF-8" standalone="no"?>
<!-- Created with Inkscape (http://www.inkscape.org/) -->

<svg
   xmlns:dc="http://purl.org/dc/elements/1.1/"
   xmlns:cc="http://creativecommons.org/ns#"
   xmlns:rdf="http://www.w3.org/1999/02/22-rdf-syntax-ns#"
   xmlns:svg="http://www.w3.org/2000/svg"
   xmlns="http://www.w3.org/2000/svg"
   xmlns:sodipodi="http://sodipodi.sourceforge.net/DTD/sodipodi-0.dtd"
   xmlns:inkscape="http://www.inkscape.org/namespaces/inkscape"
   id="svg2817"
   height="22"
   width="22"
   version="1.0"
   inkscape:version="0.91 r13725"
   sodipodi:docname="nylas.svg">
  <sodipodi:namedview
     pagecolor="#ffffff"
     bordercolor="#666666"
     borderopacity="1"
     objecttolerance="10"
     gridtolerance="10"
     guidetolerance="10"
     inkscape:pageopacity="0"
     inkscape:pageshadow="2"
     inkscape:window-width="1600"
     inkscape:window-height="849"
     id="namedview26"
     showgrid="false"
     inkscape:zoom="7.03"
     inkscape:cx="-17.220484"
     inkscape:cy="9.9619678"
     inkscape:window-x="0"
     inkscape:window-y="0"
     inkscape:window-maximized="1"
     inkscape:current-layer="svg2817" />
  <metadata
     id="metadata57">
    <rdf:RDF>
      <cc:Work
         rdf:about="">
        <dc:format>image/svg+xml</dc:format>
        <dc:type
           rdf:resource="http://purl.org/dc/dcmitype/StillImage" />
        <dc:title></dc:title>
      </cc:Work>
    </rdf:RDF>
  </metadata>
  <defs
     id="defs2819">
    <clipPath
       id="clipPath4186"
       clipPathUnits="userSpaceOnUse">
      <circle
         id="path4188"
         style="color:#000000;fill:url(#linearGradient4190)"
         cx="286"
         cy="26"
         r="10" />
    </clipPath>
  </defs>
  <g
     id="g4153"
     transform="translate(-1,-1)">
    <circle
       r="10"
       cy="12"
       cx="12"
       style="color:#000000;fill:#37a0f2"
       id="path4230" />
    <g
       style="opacity:0.2;fill:#000000;fill-opacity:1"
       id="g4268"
       transform="translate(0,2.5)">
      <path
         sodipodi:nodetypes="ccccc"
         inkscape:connector-curvature="0"
         id="path4270"
         d="m 5,12 6,2 0,2 -6,-2 z"
         style="fill:#000000;fill-opacity:1;fill-rule:evenodd" />
      <path
         style="fill:#000000;fill-opacity:1;fill-rule:evenodd"
         d="m 5,9 6,2 0,2 -6,-2 z"
         id="path4272"
         inkscape:connector-curvature="0"
         sodipodi:nodetypes="ccccc" />
      <path
         sodipodi:nodetypes="ccccc"
         inkscape:connector-curvature="0"
         id="path4274"
         d="m 5,6 6,2 0,2 -6,-2 z"
         style="fill:#000000;fill-opacity:1;fill-rule:evenodd" />
      <path
         style="fill:#000000;fill-opacity:1;fill-rule:evenodd"
         d="m 12,11 6,2 0,2 -6,-2 z"
         id="path4276"
         inkscape:connector-curvature="0"
         sodipodi:nodetypes="ccccc" />
      <path
         sodipodi:nodetypes="ccccc"
         inkscape:connector-curvature="0"
         id="path4278"
         d="m 12,8 6,2 0,2 -6,-2 z"
         style="fill:#000000;fill-opacity:1;fill-rule:evenodd" />
      <path
         style="fill:#000000;fill-opacity:1;fill-rule:evenodd"
         d="m 12,5 6,2 0,2 -6,-2 z"
         id="path4280"
         inkscape:connector-curvature="0"
         sodipodi:nodetypes="ccccc" />
    </g>
    <circle
       r="10"
       cx="286"
       cy="26"
       transform="translate(-274,-14)"
       clip-path="url(#clipPath4186)"
       style="color:#000000;opacity:0;stroke-width:0.45455"
       id="path4240" />
    <circle
       r="10"
       cx="286"
       cy="26"
       transform="translate(-274,-14)"
       clip-path="url(#clipPath4186)"
       style="color:#000000;opacity:0;stroke-width:0.90908998"
       id="path4242" />
    <path
       d="M 12,2 C 6.4605,2 2.001,6.46 2.001,12 c 0,0.08386 -0.002,0.166645 0,0.25 C 2.1331,6.827 6.5445,2.5 12,2.5 c 5.4555,0 9.867,4.3268 9.999,9.75 0.002,-0.08335 0,-0.16614 0,-0.25 C 21.999,6.46 17.5395,2 12,2 Z"
       id="rect3436"
       inkscape:connector-curvature="0"
       style="opacity:0.2;fill:#ffffff" />
    <path
       style="color:#000000;opacity:0.3"
       d="M 21.9895,11.709 A 10,10 0 0 1 12,21.5 10,10 0 0 1 2.011,11.791 10,10 0 0 0 2,12 10,10 0 0 0 12,22 10,10 0 0 0 22,12 10,10 0 0 0 21.9895,11.709 Z"
       id="circle4330"
       inkscape:connector-curvature="0" />
    <g
       transform="translate(0,2)"
       id="g4260">
      <path
         style="fill:#ffffff;fill-rule:evenodd"
         d="m 5,12 6,2 0,2 -6,-2 z"
         id="rect4142"
         inkscape:connector-curvature="0"
         sodipodi:nodetypes="ccccc" />
      <path
         sodipodi:nodetypes="ccccc"
         inkscape:connector-curvature="0"
         id="path4237"
         d="m 5,9 6,2 0,2 -6,-2 z"
         style="fill:#ffffff;fill-rule:evenodd" />
      <path
         style="fill:#ffffff;fill-rule:evenodd"
         d="m 5,6 6,2 0,2 -6,-2 z"
         id="path4239"
         inkscape:connector-curvature="0"
         sodipodi:nodetypes="ccccc" />
      <path
         sodipodi:nodetypes="ccccc"
         inkscape:connector-curvature="0"
         id="path4248"
         d="m 12,11 6,2 0,2 -6,-2 z"
         style="fill:#ffffff;fill-rule:evenodd" />
      <path
         style="fill:#ffffff;fill-rule:evenodd"
         d="m 12,8 6,2 0,2 -6,-2 z"
         id="path4250"
         inkscape:connector-curvature="0"
         sodipodi:nodetypes="ccccc" />
      <path
         sodipodi:nodetypes="ccccc"
         inkscape:connector-curvature="0"
         id="path4252"
         d="m 12,5 6,2 0,2 -6,-2 z"
         style="fill:#ffffff;fill-rule:evenodd" />
    </g>
  </g>
</svg>
